X:944
T:Azeri tune
O:Azerbeyjan
M:12/8
K:C
|:EE/2E/2DEF^GAG/2G/2FEEE|^GA/2A/2BBAGAB/2B/2GAAA|
EE/2E/2DEF^GAG/2G/2FEED|EF/2F/2^GGG/2G/2FEF/2F/2DEEE:|
|:AA/2A/2^GAB2zB/2B/2cBAG|AB/2B/2^GAB2AB/2B/2GAAA:|
|:BB/2B/2dcBA^GG/2G/2BAGF|EF/2F/2^GAG/2G/2FEF/2F/2DEEE:|
z^c/2c/2cccccB/2B/2dcBA|z^c/2c/2cccccB/2B/2dcBA|
|:zd/2d/2ddddd^c/2c/2ed_cb|z^c/2c/2cccccB/2B/2dcBA:|
ee/2e/2deB^cdd/2d/2cdAB|ee/2e/2deB^cdd/2d/2cdAB|
c/2d/2c/2d/2BAB/2B/2^GAB/2B/2GA3|
